X: 29787
T: O'Broin's Flightcase
R: jig
M: 6/8
K: Amixolydian
~c3 cBA|BGB GBE|~c3 cBA|~D3 DFA|
~c3 cBA|BGB GBE|GAB dcB|~D3 DFA:|
=c2A Bcd|eAB =cde|gfe ~A3|BAG dBG|
=c2A Bcd|eAB =cde|gab age|fed afd|
=c2A Bcd|eAB =cde|gfe ~A3|fed GBd|
eAB =cde|AB=c def|gab age|fed afd||

